src/app/components/golos-ui/Icon/assets/ic_mail.svg

<?xml version="1.0" encoding="UTF-8"?>
<svg width="28px" height="19px" viewBox="0 0 28 19" version="1.1" xmlns="http://www.w3.org/2000/svg" xmlns:xlink="http://www.w3.org/1999/xlink">
    <!-- Generator: Sketch 51.2 (57519) - http://www.bohemiancoding.com/sketch -->
    <title>ic_mail</title>
    <desc>Created with Sketch.</desc>
    <defs></defs>
    <g id="FAQ" stroke="none" stroke-width="1" fill="none" fill-rule="evenodd">
        <g transform="translate(-1025.000000, -1474.000000)" fill="#FFC80A" id="Group-7">
            <g transform="translate(0.000000, 1202.000000)">
                <g id="Group-22" transform="translate(1002.000000, 241.000000)">
                    <g id="ic_mail" transform="translate(23.000000, 31.000000)">
                        <path d="M24.5818284,0 L3.42402194,0 C1.53520105,0 0,1.36889525 0,3.05310327 L0,15.947155 C0,17.6311048 1.53520105,19 3.42402194,19 L24.5758901,19 C26.464711,19 27.9999845,17.6311048 27.9999845,15.947155 L27.9999845,3.05814001 C28.0056331,1.37419028 26.4704321,0 24.5818284,0 Z M26.4415371,15.947155 C26.4415371,16.8615169 25.6073477,17.6054045 24.5818284,17.6054045 L3.42402194,17.6054045 C2.39857513,17.6054045 1.56438573,16.8615169 1.56438573,15.947155 L1.56438573,3.05814001 C1.56438573,2.14377817 2.39857513,1.39995514 3.42402194,1.39995514 L24.5758901,1.39995514 C25.6014093,1.39995514 26.4355987,2.14377817 26.4355987,3.05814001 L26.4355987,15.947155 L26.4415371,15.947155 Z" id="Fill-1"></path>
                        <path d="M17.7309844,9.83267068 L24.7222777,4.246304 C25.0478204,3.98279925 25.0772472,3.53477529 24.7815009,3.23964997 C24.4857547,2.94986061 23.9829121,2.92364189 23.6519721,3.18714664 L14.0104967,10.8972299 L12.1294027,9.40032525 C12.1236356,9.39518691 12.1178686,9.39004857 12.1178686,9.38464672 C12.0762423,9.34782193 12.0349857,9.31620136 11.9875923,9.28451491 L4.3337535,3.1817448 C4.00244377,2.91824004 3.49960122,2.94445876 3.20385497,3.23964997 C2.90810873,3.53477529 2.93790517,3.98279925 3.26884521,4.246304 L10.3433911,9.87996978 L3.29864165,15.7561258 C2.97916177,16.0250324 2.96126912,16.4729905 3.26307816,16.7627798 C3.42278113,16.9102108 3.63564449,16.9894598 3.84850785,16.9894598 C4.04377431,16.9894598 4.23896683,16.9261528 4.39290275,16.7995388 L11.543973,10.8393247 L13.4839205,12.3832649 C13.6378564,12.5044771 13.82706,12.5623823 14.0165595,12.5623823 C14.2056892,12.5623823 14.4009556,12.4993388 14.5488288,12.3781266 L16.5422324,10.7865579 L23.6519721,16.8049406 C23.8056122,16.936693 24.0066458,17 24.2018383,17 C24.4147016,17 24.6217979,16.9261528 24.7815009,16.7784584 C25.08331,16.4941367 25.0714801,16.0407109 24.7520742,15.7720678 L17.7309844,9.83267068 Z" id="Fill-4"></path>
                    </g>
                </g>
            </g>
        </g>
    </g>
</svg>

<svg width="28" height="19" viewBox="0 0 28 19" xmlns="http://www.w3.org/2000/svg"><g fill="#FFC80A" fill-rule="evenodd"><path d="M24.582 0H3.424C1.535 0 0 1.369 0 3.053v12.894C0 17.631 1.535 19 3.424 19h21.152C26.465 19 28 17.631 28 15.947V3.058C28.006 1.374 26.47 0 24.582 0zm1.86 15.947c0 .915-.835 1.658-1.86 1.658H3.424c-1.025 0-1.86-.743-1.86-1.658V3.058c0-.914.835-1.658 1.86-1.658h21.152c1.025 0 1.86.744 1.86 1.658v12.89h.006z"/><path d="M17.731 9.833l6.991-5.587a.662.662 0 0 0 .06-1.006.873.873 0 0 0-1.13-.053l-9.642 7.71L12.13 9.4c-.006-.005-.012-.01-.012-.015a1.187 1.187 0 0 0-.13-.1L4.334 3.182a.867.867 0 0 0-1.13.058c-.296.295-.266.743.065 1.006l7.074 5.634L3.3 15.756a.66.66 0 0 0-.036 1.007.871.871 0 0 0 1.13.036l7.151-5.96 1.94 1.544a.86.86 0 0 0 .533.18.85.85 0 0 0 .532-.185l1.993-1.591 7.11 6.018a.848.848 0 0 0 .55.195c.213 0 .42-.074.58-.222a.66.66 0 0 0-.03-1.006l-7.021-5.94z"/></g></svg>
